src/assets/images/building3.svg

<?xml version="1.0" encoding="UTF-8"?>
<svg viewBox="0 0 638 1758" xmlns="http://www.w3.org/2000/svg">
<path d="m510.73 318.94v-32.595h27.387v-83.93h-140.43v-202.42h-14.035v202.42h-23.16v-202.42h-14.035v202.42h-103.41v26.503h-57.426v26.507h28.271v30.92h-17.668v32.595h-41.196v-28.122h-54.659v28.122h-28.267v-32.595h-63.166v1471.4h501.79v-1438.8z" fill="#676767"/>
<path d="m510.73 318.94v1438.8h99.666v-1414.9l-99.666-56.542v32.595z" fill="#979797"/>
<path d="m538.11 202.42v83.929l99.663 56.543v-83.926l-99.663-56.546z" fill="#979797"/>
<path d="m510.73 286.34 99.666 56.542h27.383l-99.662-56.542h-27.387z" fill="#7C7C7C"/>
<path d="m538.02 202.42h-294.97v83.926h294.97v-83.926z" fill="#5D5D5D"/>
<path d="M510.72 318.947H0V342.296H510.72V318.947Z" fill="#5D5D5D"/>
<path d="m616.79 395.11-106.02-52.813v-23.349l106.02 52.813v23.349z" fill="#7C7C7C"/>
<path d="m616.79 717.72-106.02-52.813v-23.352l106.02 52.816v23.349z" fill="#7C7C7C"/>
<path d="m616.79 1040.3-106.02-52.808v-23.349l106.02 52.817v23.34z" fill="#7C7C7C"/>
<path d="m616.79 1363-106.02-52.82v-23.35l106.02 52.82v23.35z" fill="#7C7C7C"/>
<path d="m616.79 1685.6-106.02-52.81v-23.35l106.02 52.81v23.35z" fill="#7C7C7C"/>
<path d="M510.72 641.825H0V665.174H510.72V641.825Z" fill="#5D5D5D"/>
<path d="M510.72 964.704H0V988.053H510.72V964.704Z" fill="#5D5D5D"/>
<path d="M510.72 1287.58H0V1310.93H510.72V1287.58Z" fill="#5D5D5D"/>
<path d="M510.72 1610.46H0V1633.81H510.72V1610.46Z" fill="#5D5D5D"/>
<path d="m72.595 374.12h-21.101v232.15h21.101v-232.15z" fill="#585858"/>
<path d="m136.96 374.12h-21.102v232.15h21.102v-232.15z" fill="#585858"/>
<path d="m201.32 374.12h-21.101v232.15h21.101v-232.15z" fill="#585858"/>
<path d="m265.68 374.12h-21.101v232.15h21.101v-232.15z" fill="#585858"/>
<path d="m330.04 374.12h-21.102v232.15h21.102v-232.15z" fill="#585858"/>
<path d="m394.4 374.12h-21.101v232.15h21.101v-232.15z" fill="#585858"/>
<path d="m458.76 374.12h-21.101v232.15h21.101v-232.15z" fill="#585858"/>
<path d="m72.595 1023.2h-21.101v232.15h21.101v-232.15z" fill="#585858"/>
<path d="m136.96 1023.2h-21.102v232.15h21.102v-232.15z" fill="#585858"/>
<path d="m201.32 1023.2h-21.101v232.15h21.101v-232.15z" fill="#585858"/>
<path d="m265.68 1023.2h-21.101v232.15h21.101v-232.15z" fill="#585858"/>
<path d="m330.04 1023.2h-21.102v232.15h21.102v-232.15z" fill="#585858"/>
<path d="m394.4 1023.2h-21.101v232.15h21.101v-232.15z" fill="#585858"/>
<path d="m458.76 1023.2h-21.101v232.15h21.101v-232.15z" fill="#585858"/>
<path d="m72.595 1351.4h-21.101v232.15h21.101v-232.15z" fill="#585858"/>
<path d="m136.96 1351.4h-21.102v232.15h21.102v-232.15z" fill="#585858"/>
<path d="m201.32 1351.4h-21.101v232.15h21.101v-232.15z" fill="#585858"/>
<path d="m265.68 1351.4h-21.101v232.15h21.101v-232.15z" fill="#585858"/>
<path d="m330.04 1351.4h-21.102v232.15h21.102v-232.15z" fill="#585858"/>
<path d="m394.4 1351.4h-21.101v232.15h21.101v-232.15z" fill="#585858"/>
<path d="m458.76 1351.4h-21.101v232.15h21.101v-232.15z" fill="#585858"/>
<path d="m72.595 699h-21.101v232.15h21.101v-232.15z" fill="#585858"/>
<path d="m136.96 699h-21.102v232.15h21.102v-232.15z" fill="#585858"/>
<path d="m201.32 699h-21.101v232.15h21.101v-232.15z" fill="#585858"/>
<path d="m265.68 699h-21.101v232.15h21.101v-232.15z" fill="#585858"/>
<path d="m330.04 699h-21.102v232.15h21.102v-232.15z" fill="#585858"/>
<path d="m394.4 699h-21.101v232.15h21.101v-232.15z" fill="#585858"/>
<path d="m458.76 699h-21.101v232.15h21.101v-232.15z" fill="#585858"/>
</svg>

<svg width="638" height="1758" viewBox="0 0 638 1758" fill="none" xmlns="http://www.w3.org/2000/svg">
<path d="M510.728 318.94V286.345H538.115V255.425V228.918V202.415H397.688V0H383.653V202.415H360.493V0H346.458V202.415H243.047V228.918H185.621V255.425H213.892V286.345H196.224V318.94H155.028V290.818H100.369V318.94H72.1017V286.345H8.93555V318.94V332.281V1757.77H510.728V342.883V318.94Z" fill="#616666"/>
<path d="M510.727 318.94V342.883V1757.77H610.393V342.887L510.727 286.345V318.94Z" fill="#8E9999"/>
<path d="M538.113 202.415V228.918V255.424V286.344L637.776 342.887V258.961L538.113 202.415Z" fill="#8E9999"/>
<path d="M510.727 286.345L610.393 342.887H637.776L538.114 286.345H510.727Z" fill="#798080"/>
<path d="M538.018 202.415H243.047V286.341H538.018V202.415Z" fill="#575C5C"/>
<path d="M510.72 318.947H0V342.296H510.72V318.947Z" fill="#575C5C"/>
<path d="M616.79 395.109L510.771 342.296V318.947L616.79 371.76V395.109Z" fill="#798080"/>
<path d="M616.79 717.724L510.771 664.911V641.559L616.79 694.375V717.724Z" fill="#798080"/>
<path d="M616.79 1040.33L510.771 987.522V964.173L616.79 1016.99V1040.33Z" fill="#798080"/>
<path d="M616.79 1362.95L510.771 1310.13V1286.78L616.79 1339.6V1362.95Z" fill="#798080"/>
<path d="M616.79 1685.56L510.771 1632.75V1609.4L616.79 1662.21V1685.56Z" fill="#798080"/>
<path d="M510.72 641.825H0V665.174H510.72V641.825Z" fill="#575C5C"/>
<path d="M510.72 964.704H0V988.053H510.72V964.704Z" fill="#575C5C"/>
<path d="M510.72 1287.58H0V1310.93H510.72V1287.58Z" fill="#575C5C"/>
<path d="M510.72 1610.46H0V1633.81H510.72V1610.46Z" fill="#575C5C"/>
<path d="M72.5953 374.115H51.4941V606.269H72.5953V374.115Z" fill="#4F5454"/>
<path d="M136.957 374.115H115.855V606.269H136.957V374.115Z" fill="#4F5454"/>
<path d="M201.316 374.115H180.215V606.269H201.316V374.115Z" fill="#4F5454"/>
<path d="M265.677 374.115H244.576V606.269H265.677V374.115Z" fill="#4F5454"/>
<path d="M330.041 374.115H308.939V606.269H330.041V374.115Z" fill="#4F5454"/>
<path d="M394.4 374.115H373.299V606.269H394.4V374.115Z" fill="#4F5454"/>
<path d="M458.761 374.115H437.66V606.269H458.761V374.115Z" fill="#4F5454"/>
<path d="M72.5953 1023.21H51.4941V1255.36H72.5953V1023.21Z" fill="#4F5454"/>
<path d="M136.957 1023.21H115.855V1255.36H136.957V1023.21Z" fill="#4F5454"/>
<path d="M201.316 1023.21H180.215V1255.36H201.316V1023.21Z" fill="#4F5454"/>
<path d="M265.677 1023.21H244.576V1255.36H265.677V1023.21Z" fill="#4F5454"/>
<path d="M330.041 1023.21H308.939V1255.36H330.041V1023.21Z" fill="#4F5454"/>
<path d="M394.4 1023.21H373.299V1255.36H394.4V1023.21Z" fill="#4F5454"/>
<path d="M458.761 1023.21H437.66V1255.36H458.761V1023.21Z" fill="#4F5454"/>
<path d="M72.5953 1351.42H51.4941V1583.57H72.5953V1351.42Z" fill="#4F5454"/>
<path d="M136.957 1351.42H115.855V1583.57H136.957V1351.42Z" fill="#4F5454"/>
<path d="M201.316 1351.42H180.215V1583.57H201.316V1351.42Z" fill="#4F5454"/>
<path d="M265.677 1351.42H244.576V1583.57H265.677V1351.42Z" fill="#4F5454"/>
<path d="M330.041 1351.42H308.939V1583.57H330.041V1351.42Z" fill="#4F5454"/>
<path d="M394.4 1351.42H373.299V1583.57H394.4V1351.42Z" fill="#4F5454"/>
<path d="M458.761 1351.42H437.66V1583.57H458.761V1351.42Z" fill="#4F5454"/>
<path d="M72.5953 698.996H51.4941V931.146H72.5953V698.996Z" fill="#4F5454"/>
<path d="M136.957 698.996H115.855V931.146H136.957V698.996Z" fill="#4F5454"/>
<path d="M201.316 698.996H180.215V931.146H201.316V698.996Z" fill="#4F5454"/>
<path d="M265.677 698.996H244.576V931.146H265.677V698.996Z" fill="#4F5454"/>
<path d="M330.041 698.996H308.939V931.146H330.041V698.996Z" fill="#4F5454"/>
<path d="M394.4 698.996H373.299V931.146H394.4V698.996Z" fill="#4F5454"/>
<path d="M458.761 698.996H437.66V931.146H458.761V698.996Z" fill="#4F5454"/>
</svg>
